public/images/profile_icon.svg

<?xml version="1.0" encoding="utf-8"?>
<!-- Generator: Adobe Illustrator 23.0.3, SVG Export Plug-In . SVG Version: 6.00 Build 0)  -->
<svg version="1.1" id="Layer_1" xmlns="http://www.w3.org/2000/svg" xmlns:xlink="http://www.w3.org/1999/xlink" x="0px" y="0px"
	 viewBox="0 0 32 32" style="enable-background:new 0 0 32 32;" xml:space="preserve">
<g>
	<g>
		<path d="M16,14c-3.8598633,0-7-3.1401367-7-7s3.1401367-7,7-7s7,3.1401367,7,7S19.8598633,14,16,14z M16,2
			c-2.7568359,0-5,2.2431641-5,5s2.2431641,5,5,5s5-2.2431641,5-5S18.7568359,2,16,2z"/>
	</g>
	<g>
		<path d="M23.9423828,32H8.0576172C5.8203125,32,4,30.1796875,4,27.9423828c0-6.6166992,5.3833008-12,12-12s12,5.3833008,12,12
			C28,30.1796875,26.1796875,32,23.9423828,32z M16,17.9423828c-5.5141602,0-10,4.4858398-10,10
			C6,29.0771484,6.9228516,30,8.0576172,30h15.8847656C25.0771484,30,26,29.0771484,26,27.9423828
			C26,22.4282227,21.5141602,17.9423828,16,17.9423828z"/>
	</g>
</g>
</svg>

<?xml version="1.0" encoding="UTF-8" standalone="no" ?>
<!DOCTYPE svg PUBLIC "-//W3C//DTD SVG 1.1//EN" "http://www.w3.org/Graphics/SVG/1.1/DTD/svg11.dtd">
<svg xmlns="http://www.w3.org/2000/svg" xmlns:xlink="http://www.w3.org/1999/xlink" version="1.1" width="100" height="100" viewBox="0 0 100 100" xml:space="preserve">
<desc>Created with Fabric.js 5.2.4</desc>
<defs>
</defs>
<rect x="0" y="0" width="100%" height="100%" fill="transparent"></rect>
<g transform="matrix(Infinity NaN NaN Infinity 0 0)" id="c2be753c-2b95-42de-a42a-5b4a73e713b7"  >
</g>
<g transform="matrix(1 0 0 1 50 50)" id="fef38d58-38e2-4a90-9e28-462abf63bd0f"  >
<rect style="stroke: none; stroke-width: 1; stroke-dasharray: none; stroke-linecap: butt; stroke-dashoffset: 0; stroke-linejoin: miter; stroke-miterlimit: 4; fill: rgb(255,242,242); fill-rule: nonzero; opacity: 1; visibility: hidden;" vector-effect="non-scaling-stroke"  x="-50" y="-50" rx="0" ry="0" width="100" height="100" />
</g>
<g transform="matrix(2.14 0 0 2.14 50 50)"  >
<g style="" vector-effect="non-scaling-stroke"   >
		<g transform="matrix(1 0 0 1 0 -9)"  >
<path style="stroke: none; stroke-width: 1; stroke-dasharray: none; stroke-linecap: butt; stroke-dashoffset: 0; stroke-linejoin: miter; stroke-miterlimit: 4; fill: rgb(19,18,18); fill-rule: nonzero; opacity: 1;" vector-effect="non-scaling-stroke"  transform=" translate(-16, -7)" d="M 16 14 C 12.1401367 14 9 10.8598633 9 7 C 9 3.1401366999999993 12.1401367 0 16 0 C 19.8598633 0 23 3.1401367 23 7 C 23 10.8598633 19.8598633 14 16 14 z M 16 2 C 13.2431641 2 11 4.2431640999999996 11 7 C 11 9.7568359 13.2431641 12 16 12 C 18.7568359 12 21 9.7568359 21 7 C 21 4.2431640999999996 18.7568359 2 16 2 z" stroke-linecap="round" />
</g>
		<g transform="matrix(1 0 0 1 0 7.97)"  >
<path style="stroke: none; stroke-width: 1; stroke-dasharray: none; stroke-linecap: butt; stroke-dashoffset: 0; stroke-linejoin: miter; stroke-miterlimit: 4; fill: rgb(19,18,18); fill-rule: nonzero; opacity: 1;" vector-effect="non-scaling-stroke"  transform=" translate(-16, -23.97)" d="M 23.9423828 32 L 8.0576172 32 C 5.8203125 32 4 30.1796875 4 27.9423828 C 4 21.3256836 9.3833008 15.9423828 16 15.9423828 C 22.6166992 15.9423828 28 21.3256836 28 27.9423828 C 28 30.1796875 26.1796875 32 23.9423828 32 z M 16 17.9423828 C 10.4858398 17.9423828 6 22.4282226 6 27.9423828 C 6 29.0771484 6.9228516 30 8.0576172 30 L 23.942382799999997 30 C 25.0771484 30 26 29.0771484 26 27.9423828 C 26 22.4282227 21.5141602 17.9423828 16 17.9423828 z" stroke-linecap="round" />
</g>
</g>
</g>
</svg>
